X:2
T:Spit in the Ocean
C:Colin Cotter
M:C
K:G
[D2B2] [D2B2] z2 AG|A2 B2 G2 DD|[D2B2] [D2B2] z2 AG|A2B2 [E2B2] dd|[D2B2] [D2B2] z2 AG|A2 B2 G2 dd|
A,B,DG B,CDG|[1 D2 F2 G2 GA:|D2 F2 G2 GB|:[D2A2] [D2A2] z2 GA|B2 c2 A2 GA|B2 c2 A2 GA|[E2B2] [E2B2] z2 cB|
dBcB A2 GA|[D2B2] [D2B2] z2 AG|A2 B2 G2 DD|A,B,DG B,CDG|[1 D2 F2 G2 GB :|[2 D2 F2 G2 GA|]
